flaticon/real-estate/apartment.svg

<svg xmlns="http://www.w3.org/2000/svg" width="32" height="32" viewBox="0 0 24 24">
    <path d="M9.199219 5.601562L11.199219 5.601562C11.441406 5.601562 11.601562 5.441406 11.601562 5.199219L11.601562 3.601562C11.601562 3.359375 11.441406 3.199219 11.199219 3.199219L9.199219 3.199219C8.960938 3.199219 8.800781 3.359375 8.800781 3.601562L8.800781 5.199219C8.800781 5.441406 8.960938 5.601562 9.199219 5.601562zM9.601562 4L10.800781 4 10.800781 4.800781 9.601562 4.800781zM12.800781 5.601562L14.800781 5.601562C15.039062 5.601562 15.199219 5.441406 15.199219 5.199219L15.199219 3.601562C15.199219 3.359375 15.039062 3.199219 14.800781 3.199219L12.800781 3.199219C12.558594 3.199219 12.398438 3.359375 12.398438 3.601562L12.398438 5.199219C12.398438 5.441406 12.558594 5.601562 12.800781 5.601562zM13.199219 4L14.398438 4 14.398438 4.800781 13.199219 4.800781zM9.199219 8.800781L11.199219 8.800781C11.441406 8.800781 11.601562 8.640625 11.601562 8.398438L11.601562 6.800781C11.601562 6.558594 11.441406 6.398438 11.199219 6.398438L9.199219 6.398438C8.960938 6.398438 8.800781 6.558594 8.800781 6.800781L8.800781 8.398438C8.800781 8.640625 8.960938 8.800781 9.199219 8.800781zM9.601562 7.199219L10.800781 7.199219 10.800781 8 9.601562 8zM12.800781 8.800781L14.800781 8.800781C15.039062 8.800781 15.199219 8.640625 15.199219 8.398438L15.199219 6.800781C15.199219 6.558594 15.039062 6.398438 14.800781 6.398438L12.800781 6.398438C12.558594 6.398438 12.398438 6.558594 12.398438 6.800781L12.398438 8.398438C12.398438 8.640625 12.558594 8.800781 12.800781 8.800781zM13.199219 7.199219L14.398438 7.199219 14.398438 8 13.199219 8zM9.199219 12L11.199219 12C11.441406 12 11.601562 11.839844 11.601562 11.601562L11.601562 10C11.601562 9.761719 11.441406 9.601562 11.199219 9.601562L9.199219 9.601562C8.960938 9.601562 8.800781 9.761719 8.800781 10L8.800781 11.601562C8.800781 11.839844 8.960938 12 9.199219 12zM9.601562 10.398438L10.800781 10.398438 10.800781 11.199219 9.601562 11.199219zM12.800781 12L14.800781 12C15.039062 12 15.199219 11.839844 15.199219 11.601562L15.199219 10C15.199219 9.761719 15.039062 9.601562 14.800781 9.601562L12.800781 9.601562C12.558594 9.601562 12.398438 9.761719 12.398438 10L12.398438 11.601562C12.398438 11.839844 12.558594 12 12.800781 12zM13.199219 10.398438L14.398438 10.398438 14.398438 11.199219 13.199219 11.199219zM9.199219 15.199219L11.199219 15.199219C11.441406 15.199219 11.601562 15.039062 11.601562 14.800781L11.601562 13.199219C11.601562 12.960938 11.441406 12.800781 11.199219 12.800781L9.199219 12.800781C8.960938 12.800781 8.800781 12.960938 8.800781 13.199219L8.800781 14.800781C8.800781 15.039062 8.960938 15.199219 9.199219 15.199219zM9.601562 13.601562L10.800781 13.601562 10.800781 14.398438 9.601562 14.398438zM12.800781 15.199219L14.800781 15.199219C15.039062 15.199219 15.199219 15.039062 15.199219 14.800781L15.199219 13.199219C15.199219 12.960938 15.039062 12.800781 14.800781 12.800781L12.800781 12.800781C12.558594 12.800781 12.398438 12.960938 12.398438 13.199219L12.398438 14.800781C12.398438 15.039062 12.558594 15.199219 12.800781 15.199219zM13.199219 13.601562L14.398438 13.601562 14.398438 14.398438 13.199219 14.398438zM9.199219 18.398438L11.199219 18.398438C11.441406 18.398438 11.601562 18.238281 11.601562 18L11.601562 16.398438C11.601562 16.160156 11.441406 16 11.199219 16L9.199219 16C8.960938 16 8.800781 16.160156 8.800781 16.398438L8.800781 18C8.800781 18.238281 8.960938 18.398438 9.199219 18.398438zM9.601562 16.800781L10.800781 16.800781 10.800781 17.601562 9.601562 17.601562zM12.800781 18.398438L14.800781 18.398438C15.039062 18.398438 15.199219 18.238281 15.199219 18L15.199219 16.398438C15.199219 16.160156 15.039062 16 14.800781 16L12.800781 16C12.558594 16 12.398438 16.160156 12.398438 16.398438L12.398438 18C12.398438 18.238281 12.558594 18.398438 12.800781 18.398438zM13.199219 16.800781L14.398438 16.800781 14.398438 17.601562 13.199219 17.601562zM4.398438 6.398438L2.398438 6.398438C2.160156 6.398438 2 6.558594 2 6.800781L2 8.398438C2 8.640625 2.160156 8.800781 2.398438 8.800781L4.398438 8.800781C4.640625 8.800781 4.800781 8.640625 4.800781 8.398438L4.800781 6.800781C4.800781 6.558594 4.640625 6.398438 4.398438 6.398438zM4 8L2.800781 8 2.800781 7.199219 4 7.199219zM4.398438 9.601562L2.398438 9.601562C2.160156 9.601562 2 9.761719 2 10L2 11.601562C2 11.839844 2.160156 12 2.398438 12L4.398438 12C4.640625 12 4.800781 11.839844 4.800781 11.601562L4.800781 10C4.800781 9.761719 4.640625 9.601562 4.398438 9.601562zM4 11.199219L2.800781 11.199219 2.800781 10.398438 4 10.398438zM4.398438 12.800781L2.398438 12.800781C2.160156 12.800781 2 12.960938 2 13.199219L2 14.800781C2 15.039062 2.160156 15.199219 2.398438 15.199219L4.398438 15.199219C4.640625 15.199219 4.800781 15.039062 4.800781 14.800781L4.800781 13.199219C4.800781 12.960938 4.640625 12.800781 4.398438 12.800781zM4 14.398438L2.800781 14.398438 2.800781 13.601562 4 13.601562zM4.398438 16L2.398438 16C2.160156 16 2 16.160156 2 16.398438L2 18C2 18.238281 2.160156 18.398438 2.398438 18.398438L4.398438 18.398438C4.640625 18.398438 4.800781 18.238281 4.800781 18L4.800781 16.398438C4.800781 16.160156 4.640625 16 4.398438 16zM4 17.601562L2.800781 17.601562 2.800781 16.800781 4 16.800781zM19.601562 12L21.601562 12C21.839844 12 22 11.839844 22 11.601562L22 10C22 9.761719 21.839844 9.601562 21.601562 9.601562L19.601562 9.601562C19.359375 9.601562 19.199219 9.761719 19.199219 10L19.199219 11.601562C19.199219 11.839844 19.359375 12 19.601562 12zM20 10.398438L21.199219 10.398438 21.199219 11.199219 20 11.199219zM19.601562 15.199219L21.601562 15.199219C21.839844 15.199219 22 15.039062 22 14.800781L22 13.199219C22 12.960938 21.839844 12.800781 21.601562 12.800781L19.601562 12.800781C19.359375 12.800781 19.199219 12.960938 19.199219 13.199219L19.199219 14.800781C19.199219 15.039062 19.359375 15.199219 19.601562 15.199219zM20 13.601562L21.199219 13.601562 21.199219 14.398438 20 14.398438zM19.601562 18.398438L21.601562 18.398438C21.839844 18.398438 22 18.238281 22 18L22 16.398438C22 16.160156 21.839844 16 21.601562 16L19.601562 16C19.359375 16 19.199219 16.160156 19.199219 16.398438L19.199219 18C19.199219 18.238281 19.359375 18.398438 19.601562 18.398438zM20 16.800781L21.199219 16.800781 21.199219 17.601562 20 17.601562zM20 16.800781"/>
    <path d="M 24 8.398438 L 24 6.800781 C 24 6.558594 23.839844 6.398438 23.601562 6.398438 L 16.800781 6.398438 L 16.800781 2.398438 C 17.039062 2.398438 17.199219 2.238281 17.199219 2 L 17.199219 0.398438 C 17.199219 0.160156 17.039062 0 16.800781 0 L 7.199219 0 C 6.960938 0 6.800781 0.160156 6.800781 0.398438 L 6.800781 2 C 6.800781 2.238281 6.960938 2.398438 7.199219 2.398438 L 7.199219 3.199219 L 0.398438 3.199219 C 0.160156 3.199219 0 3.359375 0 3.601562 L 0 5.199219 C 0 5.441406 0.160156 5.601562 0.398438 5.601562 L 0.398438 20.800781 C 0.160156 20.800781 0 20.960938 0 21.199219 L 0 23.601562 C 0 23.839844 0.160156 24 0.398438 24 L 23.601562 24 C 23.839844 24 24 23.839844 24 23.601562 L 24 21.199219 C 24 20.960938 23.839844 20.800781 23.601562 20.800781 L 23.601562 8.800781 C 23.839844 8.800781 24 8.640625 24 8.398438 Z M 23.199219 7.199219 L 23.199219 8 L 16.800781 8 L 16.800781 7.199219 Z M 16.800781 10.398438 L 17.601562 10.398438 L 17.601562 11.199219 L 16.800781 11.199219 Z M 16.800781 13.601562 L 17.601562 13.601562 L 17.601562 14.398438 L 16.800781 14.398438 Z M 16.800781 16.800781 L 17.601562 16.800781 L 17.601562 17.601562 L 16.800781 17.601562 Z M 7.601562 0.800781 L 16.398438 0.800781 L 16.398438 1.601562 L 7.601562 1.601562 Z M 16 2.398438 L 16 20.800781 L 8 20.800781 L 8 2.398438 Z M 7.199219 17.601562 L 6.398438 17.601562 L 6.398438 16.800781 L 7.199219 16.800781 Z M 7.199219 14.398438 L 6.398438 14.398438 L 6.398438 13.601562 L 7.199219 13.601562 Z M 7.199219 11.199219 L 6.398438 11.199219 L 6.398438 10.398438 L 7.199219 10.398438 Z M 7.199219 8 L 6.398438 8 L 6.398438 7.199219 L 7.199219 7.199219 Z M 0.800781 4 L 7.199219 4 L 7.199219 4.800781 L 0.800781 4.800781 Z M 1.199219 5.601562 L 7.199219 5.601562 L 7.199219 6.398438 L 6 6.398438 C 5.761719 6.398438 5.601562 6.558594 5.601562 6.800781 L 5.601562 8.398438 C 5.601562 8.640625 5.761719 8.800781 6 8.800781 L 7.199219 8.800781 L 7.199219 9.601562 L 6 9.601562 C 5.761719 9.601562 5.601562 9.761719 5.601562 10 L 5.601562 11.601562 C 5.601562 11.839844 5.761719 12 6 12 L 7.199219 12 L 7.199219 12.800781 L 6 12.800781 C 5.761719 12.800781 5.601562 12.960938 5.601562 13.199219 L 5.601562 14.800781 C 5.601562 15.039062 5.761719 15.199219 6 15.199219 L 7.199219 15.199219 L 7.199219 16 L 6 16 C 5.761719 16 5.601562 16.160156 5.601562 16.398438 L 5.601562 18 C 5.601562 18.238281 5.761719 18.398438 6 18.398438 L 7.199219 18.398438 L 7.199219 20.800781 L 1.199219 20.800781 Z M 23.199219 23.199219 L 0.800781 23.199219 L 0.800781 21.601562 L 23.199219 21.601562 Z M 22.800781 20.800781 L 16.800781 20.800781 L 16.800781 18.398438 L 18 18.398438 C 18.238281 18.398438 18.398438 18.238281 18.398438 18 L 18.398438 16.398438 C 18.398438 16.160156 18.238281 16 18 16 L 16.800781 16 L 16.800781 15.199219 L 18 15.199219 C 18.238281 15.199219 18.398438 15.039062 18.398438 14.800781 L 18.398438 13.199219 C 18.398438 12.960938 18.238281 12.800781 18 12.800781 L 16.800781 12.800781 L 16.800781 12 L 18 12 C 18.238281 12 18.398438 11.839844 18.398438 11.601562 L 18.398438 10 C 18.398438 9.761719 18.238281 9.601562 18 9.601562 L 16.800781 9.601562 L 16.800781 8.800781 L 22.800781 8.800781 Z M 22.800781 20.800781"/>
</svg>

<svg xmlns="http://www.w3.org/2000/svg" width="32" height="32" viewBox="0 0 24 24">
    <path d="M9.2 5.602h2c.241 0 .402-.16.402-.403V3.602c0-.243-.16-.403-.403-.403h-2c-.238 0-.398.16-.398.403v1.597c0 .242.16.403.398.403zM9.601 4H10.8v.8H9.6zm0 0M12.8 5.602h2c.24 0 .4-.16.4-.403V3.602c0-.243-.16-.403-.4-.403h-2c-.241 0-.402.16-.402.403v1.597c0 .242.16.403.403.403zM13.2 4h1.198v.8H13.2zm0 0M9.2 8.8h2c.241 0 .402-.16.402-.402V6.801c0-.242-.16-.403-.403-.403h-2c-.238 0-.398.16-.398.403v1.597c0 .243.16.403.398.403zm.402-1.6H10.8V8H9.6zm0 0M12.8 8.8h2c.24 0 .4-.16.4-.402V6.801c0-.242-.16-.403-.4-.403h-2c-.241 0-.402.16-.402.403v1.597c0 .243.16.403.403.403zm.4-1.6h1.198V8H13.2zm0 0M9.2 12h2c.241 0 .402-.16.402-.398V10c0-.238-.16-.398-.403-.398h-2c-.238 0-.398.16-.398.398v1.602c0 .238.16.398.398.398zm.402-1.602H10.8v.801H9.6zm0 0M12.8 12h2c.24 0 .4-.16.4-.398V10c0-.238-.16-.398-.4-.398h-2c-.241 0-.402.16-.402.398v1.602c0 .238.16.398.403.398zm.4-1.602h1.198v.801H13.2zm0 0M9.2 15.2h2c.241 0 .402-.16.402-.4v-1.6c0-.24-.16-.4-.403-.4h-2c-.238 0-.398.16-.398.4v1.6c0 .24.16.4.398.4zm.402-1.598H10.8v.796H9.6zm0 0M12.8 15.2h2c.24 0 .4-.16.4-.4v-1.6c0-.24-.16-.4-.4-.4h-2c-.241 0-.402.16-.402.4v1.6c0 .24.16.4.403.4zm.4-1.598h1.198v.796H13.2zm0 0M9.2 18.398h2c.241 0 .402-.16.402-.398v-1.602c0-.238-.16-.398-.403-.398h-2c-.238 0-.398.16-.398.398V18c0 .238.16.398.398.398zm.402-1.597H10.8v.8H9.6zm0 0M12.8 18.398h2c.24 0 .4-.16.4-.398v-1.602c0-.238-.16-.398-.4-.398h-2c-.241 0-.402.16-.402.398V18c0 .238.16.398.403.398zm.4-1.597h1.198v.8H13.2zm0 0M4.398 6.398h-2c-.238 0-.398.16-.398.403v1.597c0 .243.16.403.398.403h2c.243 0 .403-.16.403-.403V6.801c0-.242-.16-.403-.403-.403zM4 8H2.8v-.8H4zm0 0M4.398 9.602h-2C2.16 9.602 2 9.762 2 10v1.602c0 .238.16.398.398.398h2c.243 0 .403-.16.403-.398V10c0-.238-.16-.398-.403-.398zM4 11.199H2.8v-.8H4zm0 0M4.398 12.8h-2c-.238 0-.398.16-.398.4v1.6c0 .24.16.4.398.4h2c.243 0 .403-.16.403-.4v-1.6c0-.24-.16-.4-.403-.4zM4 14.399H2.8v-.796H4zm0 0M4.398 16h-2c-.238 0-.398.16-.398.398V18c0 .238.16.398.398.398h2c.243 0 .403-.16.403-.398v-1.602c0-.238-.16-.398-.403-.398zM4 17.602H2.8V16.8H4zm0 0M19.602 12h2c.238 0 .398-.16.398-.398V10c0-.238-.16-.398-.398-.398h-2c-.243 0-.403.16-.403.398v1.602c0 .238.16.398.403.398zM20 10.398h1.2v.801H20zm0 0M19.602 15.2h2c.238 0 .398-.16.398-.4v-1.6c0-.24-.16-.4-.398-.4h-2c-.243 0-.403.16-.403.4v1.6c0 .24.16.4.403.4zM20 13.601h1.2v.796H20zm0 0M19.602 18.398h2c.238 0 .398-.16.398-.398v-1.602c0-.238-.16-.398-.398-.398h-2c-.243 0-.403.16-.403.398V18c0 .238.16.398.403.398zM20 16.801h1.2v.8H20zm0 0"/>
    <path d="M24 8.398V6.801c0-.242-.16-.403-.398-.403H16.8v-4c.238 0 .398-.16.398-.398V.398C17.2.16 17.04 0 16.801 0H7.199c-.238 0-.398.16-.398.398V2c0 .238.16.398.398.398V3.2H.4C.16 3.2 0 3.36 0 3.602v1.597c0 .242.16.403.398.403V20.8c-.238 0-.398.16-.398.398v2.403c0 .238.16.398.398.398h23.204c.238 0 .398-.16.398-.398v-2.403c0-.238-.16-.398-.398-.398v-12c.238 0 .398-.16.398-.403zM23.2 7.2V8h-6.4v-.8zm-6.4 3.2h.802v.8H16.8zm0 3.203h.802v.796H16.8zm0 3.199h.802v.8H16.8zM7.603.8h8.796v.8H7.602zM16 2.398v18.403H8V2.398zM7.2 17.602h-.802V16.8H7.2zm0-3.204h-.802v-.796H7.2zm0-3.199h-.802v-.8H7.2zM7.2 8h-.802v-.8H7.2zM.8 4h6.4v.8H.8zm.4 1.602h6v.796H6c-.238 0-.398.16-.398.403v1.597c0 .243.16.403.398.403h1.2v.8H6c-.238 0-.398.16-.398.399v1.602c0 .238.16.398.398.398h1.2v.8H6c-.238 0-.398.16-.398.4v1.6c0 .24.16.4.398.4h1.2v.8H6c-.238 0-.398.16-.398.398V18c0 .238.16.398.398.398h1.2v2.403h-6zm22 17.597H.8v-1.597h22.4zm-.4-2.398h-6v-2.403H18c.238 0 .398-.16.398-.398v-1.602c0-.238-.16-.398-.398-.398h-1.2v-.8H18c.238 0 .398-.16.398-.4v-1.6c0-.24-.16-.4-.398-.4h-1.2V12H18c.238 0 .398-.16.398-.398V10c0-.238-.16-.398-.398-.398h-1.2V8.8h6zm0 0"/>
</svg>
